24x24/apps/appimagekit-delir.svg

<svg xmlns="http://www.w3.org/2000/svg" width="24" height="24" version="1">
 <path style="opacity:0.2" d="M 12 2.5 C 6.46 2.5 2 6.96 2 12.5 C 2 18.04 6.46 22.5 12 22.5 C 14.807721 22.5 17.335521 21.351151 19.148438 19.5 L 22 19.5 L 22.5 18.5 L 19.996094 18.5 C 20.234407 18.182313 20.448567 17.845062 20.648438 17.5 L 22 17.5 L 22.5 16.5 L 22.25 16.5 L 22.5 16 L 21.361328 16 C 21.766861 14.910143 22 13.734515 22 12.5 C 22 6.96 17.54 2.5 12 2.5 z"/>
 <path style="fill:#b94bee" d="m 12,2 c 2.864129,0 5.439595,1.1920661 7.259349,3.1091465 1.700142,1.7910725 1.216261,3.7881525 1.216261,6.4640245 0,5.539999 -3.118537,9.146341 -8.658537,9.146341 -2.6922955,0 -4.9465995,0.227167 -6.7408345,-1.491543 C 3.1784338,17.410048 2,14.847705 2,12 2,6.46 6.46,2 12,2 Z"/>
 <path style="fill:#693f86" d="M 11.885742,3.1699219 12.680664,5.558594 12.313,6.656 11.751953,6.238281 11.391602,12.493164 4.868164,19.016601 C 6.679956,20.85819 9.200517,22 12,22 c 1.675307,-0.107995 3.266566,-0.467438 4.538082,-1.134762 0.897959,-0.464123 1.734808,-1.066249 2.480468,-1.800781 l 0.292969,-0.289063 h 0.04004 c 0.197515,-0.214317 0.386148,-0.435886 0.564454,-0.666992 -3.34e-4,-5.5e-4 -0.0066,-3.84e-4 -0.0068,-0.001 -0.0072,-0.01882 0.05161,-0.118698 0.146484,-0.249023 0.282655,-0.388252 0.575915,-0.873436 0.807617,-1.31836 l 0.08887,-0.08887 C 21.617326,15.110701 22,13.603316 22,12 22,9.200517 20.85819,6.679956 19.016601,4.868164 l -2.635742,2.635742 z"/>
 <path style="opacity:0.2" d="M 11.885742,3.1699219 12.13086,3.90625 16.380859,8.003906 19.011719,5.373047 C 18.927562,5.2902545 18.835065,5.21653 18.748047,5.136719 l -2.367188,2.367187 z m 7.203125,2.2763671 c 0.162641,0.1634345 0.317668,0.3344625 0.46875,0.508789 C 19.466167,5.838902 19.368332,5.723748 19.259765,5.609375 19.205591,5.5523035 19.144368,5.502063 19.088867,5.446289 Z M 12.597656,5.807617 12.313477,6.65625 11.751953,6.238281 11.391602,12.493164 4.8720703,19.012695 C 3.152455,17.264827 2.0703804,14.889679 2.0058594,12.249024 2.0038076,12.332777 2,12.415736 2,12.5 c 0,2.740546 1.0984075,5.209891 2.8720703,7.012695 l 0.2470702,-0.24707 c -0.014245,-0.01333 -0.02879,-0.02451 -0.04297,-0.03808 -0.04978,-0.04769 -0.09282,-0.101691 -0.1416017,-0.150391 0.062257,0.06216 0.1291177,0.119548 0.1933592,0.179688 l 6.263674,-6.263673 0.360351,-6.254883 0.561524,0.417969 0.367187,-1.097656 z M 4.9345703,19.577148 c 0.048782,0.0487 0.091822,0.102707 0.1416017,0.150391 0.1189695,0.113962 0.2402725,0.218921 0.363281,0.316406 C 5.2664995,19.893426 5.096747,19.739071 4.9345703,19.577148 Z"/>
 <path style="fill:#693f86" d="m 18,18 h 4.5 L 22,19 h -4 z"/>
 <path style="fill:#693f86" d="m 19,16 h 3.5 L 22,17 h -3 z"/>
 <path style="opacity:0.2" d="m 14.607465,21.350667 c -0.476558,-0.818391 -0.992394,-1.614249 -1.447466,-2.444881 0.98507,-0.808834 2.026967,-1.546955 3.0081,-2.360742 -1.414806,-4.295804 -2.842441,-8.587535 -4.282632,-12.8748976 -0.01613,0.5456939 0.101527,1.2616341 0.142856,1.8749126 0.313758,3.3778235 0.623474,6.756021 0.934445,10.134102 -0.280219,0.497816 -0.535157,1.011357 -0.846298,1.490641 -0.342266,-0.463307 -0.611929,-0.977874 -0.917269,-1.466734 0.185288,-2.988163 0.386552,-5.9754275 0.552613,-8.9647125 -0.216708,0.266666 -0.479533,1.1607375 -0.713404,1.676479 -1.0764825,2.7274725 -2.1756165,5.4482345 -3.236182,8.1806065 1.074415,0.811607 2.214601,1.559141 3.304222,2.360138 -0.197487,0.613035 -0.621075,1.170235 -0.903007,1.760849 -0.176141,0.3086 -0.5709455,0.959624 -3.2e-4,0.427343 0.64615,-0.485432 1.280932,-0.985986 1.931557,-1.465422 0.837004,0.56969 1.653468,1.169107 2.490915,1.738151 l -0.01814,-0.06583 z"/>
 <path style="fill:#f4f4f7" d="m 14.607465,20.850889 c -0.476558,-0.818391 -0.992394,-1.614249 -1.447466,-2.444881 0.98507,-0.808834 2.026967,-1.546955 3.0081,-2.360742 -1.414806,-4.295804 -2.842441,-8.587535 -4.282632,-12.8748976 -0.01613,0.5456939 0.101527,1.2616341 0.142856,1.8749126 0.313758,3.3778235 0.623474,6.756021 0.934445,10.134102 -0.280219,0.497817 -0.535157,1.011357 -0.846298,1.490641 -0.342266,-0.463307 -0.611929,-0.977874 -0.917269,-1.466733 0.185288,-2.988164 0.386552,-5.9754285 0.552613,-8.9647135 -0.216708,0.266666 -0.479533,1.1607375 -0.713404,1.676479 -1.0764825,2.7274725 -2.1756165,5.4482345 -3.236182,8.1806065 1.074415,0.811607 2.214601,1.559141 3.304222,2.360138 -0.197487,0.613035 -0.621075,1.170235 -0.903007,1.760849 -0.176141,0.308601 -0.5709455,0.959624 -3.2e-4,0.427343 0.64615,-0.485432 1.280932,-0.985986 1.931557,-1.465422 0.837004,0.56969 1.653468,1.169107 2.490915,1.738151 l -0.01814,-0.06583 z"/>
 <path style="opacity:0.1;fill:#f4f4f7" d="M 12,2 A 10,10 0 0 0 2,12 10,10 0 0 0 2.0107422,12.291016 10,10 0 0 1 12,2.5 10,10 0 0 1 21.989258,12.208985 10,10 0 0 0 22,12 10,10 0 0 0 12,2 Z"/>
</svg>

<svg xmlns="http://www.w3.org/2000/svg" width="24" height="24" version="1"><path style="opacity:.2" d="M12 2.5c-5.54 0-10 4.46-10 10s4.46 10 10 10a9.966 9.966 0 0 0 7.148-3H22l.5-1h-2.504c.238-.318.453-.655.652-1H22l.5-1h-.25l.25-.5h-1.139c.406-1.09.639-2.265.639-3.5 0-5.54-4.46-10-10-10z"/><path style="fill:#b94bee" d="M12 2a9.969 9.969 0 0 1 7.26 3.11c1.7 1.79 1.216 3.787 1.216 6.463 0 5.54-3.119 9.147-8.659 9.147-2.692 0-4.947.227-6.74-1.492A9.969 9.969 0 0 1 2 12C2 6.46 6.46 2 12 2z"/><path style="fill:#693f86" d="m11.886 3.17.795 2.389-.368 1.097-.561-.418-.36 6.255-6.524 6.524A9.964 9.964 0 0 0 12 22c1.675-.108 3.267-.467 4.538-1.135a10.216 10.216 0 0 0 2.48-1.8l.294-.29h.04c.197-.214.386-.435.564-.667h-.007c-.007-.02.052-.12.147-.25.282-.388.576-.873.807-1.318l.09-.089A9.98 9.98 0 0 0 22 12c0-2.8-1.142-5.32-2.983-7.132L16.38 7.504z"/><path style="opacity:.2" d="m11.886 3.17.245.736 4.25 4.098 2.63-2.631c-.083-.083-.176-.156-.263-.236l-2.367 2.367zm7.203 2.276c.163.164.318.335.469.51a4.908 4.908 0 0 0-.298-.347c-.054-.057-.116-.107-.171-.163zm-6.491.362-.285.848-.561-.418-.36 6.255-6.52 6.52a9.956 9.956 0 0 1-2.866-6.764c-.002.084-.006.167-.006.251 0 2.74 1.098 5.21 2.872 7.013l.247-.247c-.014-.014-.029-.025-.043-.038-.05-.048-.093-.102-.141-.15.062.061.129.119.193.179l6.264-6.264.36-6.255.561.418.368-1.097zm-7.663 13.77c.048.048.091.102.141.15.12.114.24.218.363.316-.173-.15-.342-.305-.504-.467z"/><path style="fill:#693f86" d="M18 18h4.5l-.5 1h-4zM19 16h3.5l-.5 1h-3z"/><path style="opacity:.2" d="M14.607 21.35c-.476-.818-.992-1.614-1.447-2.444.985-.809 2.027-1.547 3.008-2.361A2293.986 2293.986 0 0 0 11.885 3.67c-.016.546.102 1.262.143 1.875.314 3.378.624 6.756.935 10.134-.28.498-.535 1.012-.847 1.49-.342-.463-.611-.977-.917-1.466.185-2.988.387-5.975.553-8.965-.217.267-.48 1.161-.714 1.677-1.076 2.727-2.175 5.448-3.236 8.18 1.075.812 2.215 1.56 3.304 2.36-.197.614-.62 1.17-.903 1.761-.176.309-.57.96 0 .428.646-.486 1.281-.986 1.932-1.466.837.57 1.653 1.17 2.49 1.739l-.018-.066z"/><path style="fill:#f4f4f7" d="M14.607 20.85c-.476-.818-.992-1.613-1.447-2.444.985-.809 2.027-1.547 3.008-2.36A2293.986 2293.986 0 0 0 11.885 3.17c-.016.546.102 1.262.143 1.875.314 3.378.624 6.756.935 10.134-.28.498-.535 1.012-.847 1.491-.342-.463-.611-.978-.917-1.467.185-2.988.387-5.975.553-8.964-.217.266-.48 1.16-.714 1.676-1.076 2.728-2.175 5.448-3.236 8.18 1.075.812 2.215 1.56 3.304 2.36-.197.614-.62 1.171-.903 1.762-.176.308-.57.96 0 .427.646-.485 1.281-.986 1.932-1.465.837.57 1.653 1.169 2.49 1.738l-.018-.066z"/><path style="opacity:.1;fill:#f4f4f7" d="M12 2A10 10 0 0 0 2 12a10 10 0 0 0 .01.291A10 10 0 0 1 12 2.5a10 10 0 0 1 9.99 9.709A10 10 0 0 0 22 12 10 10 0 0 0 12 2z"/></svg>
